X:352
T: Liebe mit Trnen (84), S. 227
N: T0241
O: Luxemburg
S: Singendes Volk, Esch-Alzette 1937 posth.]
N: Blascheid, fff Kaisen-Kolbach, 1903
R: Liebeslieder]
M: 3/8
L: 1/16
K: G
 | D4D2 | G4G2 | B4G2 | G4G2
D4F2 | A4A2 | c2B2A2 | G4z2
B4d2 | A4G2 | G2F2E2 | E4D2
D4F2 | A4AA | A4A2 | B4z2
c4e2 | d4B2 | d2c2A2 | G4z2

